build/svg/cmd/32/bold.svg

<?xml version="1.0" encoding="UTF-8" standalone="no"?>
<svg
   xmlns:dc="http://purl.org/dc/elements/1.1/"
   xmlns:cc="http://creativecommons.org/ns#"
   xmlns:rdf="http://www.w3.org/1999/02/22-rdf-syntax-ns#"
   xmlns:svg="http://www.w3.org/2000/svg"
   xmlns="http://www.w3.org/2000/svg"
   xmlns:sodipodi="http://sodipodi.sourceforge.net/DTD/sodipodi-0.dtd"
   xmlns:inkscape="http://www.inkscape.org/namespaces/inkscape"
   inkscape:version="1.0 (1.0+r72)"
   inkscape:export-ydpi="96"
   inkscape:export-xdpi="96"
   inkscape:export-filename="/home/jupiter007/Libreoffice yaru theme fullcolor/build/cmd/32/bold.png"
   sodipodi:docname="bold.svg"
   id="svg844"
   version="1.1"
   viewBox="0 0 32 32">
  <metadata
     id="metadata850">
    <rdf:RDF>
      <cc:Work
         rdf:about="">
        <dc:format>image/svg+xml</dc:format>
        <dc:type
           rdf:resource="http://purl.org/dc/dcmitype/StillImage" />
      </cc:Work>
    </rdf:RDF>
  </metadata>
  <defs
     id="defs848" />
  <sodipodi:namedview
     inkscape:current-layer="svg844"
     inkscape:window-maximized="1"
     inkscape:window-y="32"
     inkscape:window-x="0"
     inkscape:cy="14.96406"
     inkscape:cx="11.584635"
     inkscape:zoom="27.03125"
     showgrid="true"
     id="namedview846"
     inkscape:window-height="1011"
     inkscape:window-width="1920"
     inkscape:pageshadow="2"
     inkscape:pageopacity="0"
     guidetolerance="10"
     gridtolerance="10"
     objecttolerance="10"
     borderopacity="1"
     bordercolor="#666666"
     pagecolor="#ffffff">
    <inkscape:grid
       id="grid2033"
       type="xygrid" />
  </sodipodi:namedview>
  <path
     id="path2047"
     d="M 7 4 L 7 10 L 7 14.5 L 7 22 L 7 28 L 13 28 L 18 28 L 19 28 L 20 28 C 24.418278 28 28 24.642136 28 20.5 C 27.9969 17.457989 26.034114 14.719042 23.03125 13.566406 C 24.282951 12.52558 24.997771 11.049136 25 9.5 C 25 6.4624339 22.313708 4 19 4 L 13 4 L 7 4 z M 11 8 L 18 8 C 18.352917 8 18.68601 8.0579295 19 8.1503906 L 19 8.1464844 C 20.197184 8.4992124 20.998218 9.4418304 21 10.5 C 20.999045 11.558769 20.197859 12.502547 19 12.855469 L 19 12.849609 C 18.68601 12.942051 18.352917 13 18 13 L 11 13 L 11 8 z M 11 17 L 18.5 17 C 20.985281 17 23 18.567004 23 20.5 C 22.9973 22.280921 21.27558 23.802121 19 24 L 17.5 24 L 17 24 L 11 24 L 11 17 z "
     style="fill:#000000;stroke:#000000;opacity:0.6;stroke-width:2;stroke-miterlimit:4;stroke-dasharray:none;stroke-linejoin:round" />
  <path
     style="fill:#ffffff"
     d="M 7 4 L 7 10 L 7 14.5 L 7 22 L 7 28 L 13 28 L 18 28 L 19 28 L 20 28 C 24.418278 28 28 24.642136 28 20.5 C 27.9969 17.457989 26.034114 14.719042 23.03125 13.566406 C 24.282951 12.52558 24.997771 11.049136 25 9.5 C 25 6.4624339 22.313708 4 19 4 L 13 4 L 7 4 z M 11 8 L 18 8 C 18.352917 8 18.68601 8.0579295 19 8.1503906 L 19 8.1464844 C 20.197184 8.4992124 20.998218 9.4418304 21 10.5 C 20.999045 11.558769 20.197859 12.502547 19 12.855469 L 19 12.849609 C 18.68601 12.942051 18.352917 13 18 13 L 11 13 L 11 8 z M 11 17 L 18.5 17 C 20.985281 17 23 18.567004 23 20.5 C 22.9973 22.280921 21.27558 23.802121 19 24 L 17.5 24 L 17 24 L 11 24 L 11 17 z "
     id="path842" />
</svg>

<svg xmlns="http://www.w3.org/2000/svg" viewBox="0 0 32 32"><path d="M7 4v24h13c4.418 0 8-3.358 8-7.5-.003-3.042-1.966-5.781-4.969-6.934C24.283 12.526 24.998 11.05 25 9.5 25 6.462 22.314 4 19 4H7zm4 4h7c.353 0 .686.058 1 .15v-.004c1.197.353 1.998 1.296 2 2.354-.001 1.059-.802 2.003-2 2.355v-.005c-.314.092-.647.15-1 .15h-7V8zm0 9h7.5c2.485 0 4.5 1.567 4.5 3.5-.003 1.78-1.724 3.302-4 3.5h-8v-7z" stroke="#000" opacity=".6" stroke-width="2" stroke-linejoin="round"/><path d="M7 4v24h13c4.418 0 8-3.358 8-7.5-.003-3.042-1.966-5.781-4.969-6.934C24.283 12.526 24.998 11.05 25 9.5 25 6.462 22.314 4 19 4H7zm4 4h7c.353 0 .686.058 1 .15v-.004c1.197.353 1.998 1.296 2 2.354-.001 1.059-.802 2.003-2 2.355v-.005c-.314.092-.647.15-1 .15h-7V8zm0 9h7.5c2.485 0 4.5 1.567 4.5 3.5-.003 1.78-1.724 3.302-4 3.5h-8v-7z" fill="#fff"/></svg>
